X: 1444
T: Jimmy's Return
R: reel
B: O'Neill's 1850 #1444
Z: Bob Safranek, rjs@gsp.org
M: C|
L: 1/8
K: Bm
e | f2Bc dBfB | cAec aecA |1 f2Bc dBfB | cAec dB B :|2 BcdB cdea | fdec dB B |] c | Bbfd BcdB |
| cAec aecA | Bbfd BcdB | cAec dBBc || Bbfd BcdB | cAcA aecA | Baga fgef | dfec dB B |]
